Numix-GalliumOS/16/status/user-away.svg

<?xml version="1.0" encoding="UTF-8" standalone="no"?>
<svg
   xmlns:dc="http://purl.org/dc/elements/1.1/"
   xmlns:cc="http://creativecommons.org/ns#"
   xmlns:rdf="http://www.w3.org/1999/02/22-rdf-syntax-ns#"
   xmlns:svg="http://www.w3.org/2000/svg"
   xmlns="http://www.w3.org/2000/svg"
   xmlns:sodipodi="http://sodipodi.sourceforge.net/DTD/sodipodi-0.dtd"
   xmlns:inkscape="http://www.inkscape.org/namespaces/inkscape"
   width="16"
   viewBox="0 0 16 16"
   height="16"
   id="svg2"
   version="1.1"
   inkscape:version="0.91 r"
   sodipodi:docname="user-away.svg">
  <metadata
     id="metadata18">
    <rdf:RDF>
      <cc:Work
         rdf:about="">
        <dc:format>image/svg+xml</dc:format>
        <dc:type
           rdf:resource="http://purl.org/dc/dcmitype/StillImage" />
        <dc:title />
      </cc:Work>
    </rdf:RDF>
  </metadata>
  <sodipodi:namedview
     pagecolor="#ffffff"
     bordercolor="#666666"
     borderopacity="1"
     objecttolerance="10"
     gridtolerance="10"
     guidetolerance="10"
     inkscape:pageopacity="0"
     inkscape:pageshadow="2"
     inkscape:window-width="1920"
     inkscape:window-height="1052"
     id="namedview16"
     showgrid="true"
     inkscape:zoom="51.22168"
     inkscape:cx="6.6880027"
     inkscape:cy="8"
     inkscape:window-x="0"
     inkscape:window-y="28"
     inkscape:window-maximized="1"
     inkscape:current-layer="svg2">
    <inkscape:grid
       type="xygrid"
       id="grid2995" />
  </sodipodi:namedview>
  <defs
     id="defs4" />
  <path
     style="fill:#eedb58;fill-opacity:1;stroke:none"
     d="M 8,0 C 3.581722,0 0,3.1340067 0,7 c 0,3.865993 3.581722,7 8,7 4.418278,0 8,-3.134007 8,-7 C 16,3.1340067 12.418278,0 8,0 z m 0.031477,3 c 0.2646026,0 0.5472478,0.1097478 0.75,0.3125 l 2.90625,2.90625 c 0.01644,0.016439 0.01614,0.04528 0.03125,0.0625 0.09948,0.1134013 0.17016,0.2368943 0.21875,0.375 0.03503,0.099565 0.0625,0.2106406 0.0625,0.3125 3.4e-4,0.010777 0,0.020387 0,0.03125 3.33e-4,0.010723 0,0.020523 0,0.03125 3.33e-4,0.010272 9.99e-4,0.02056 0,0.03125 -2.86e-4,0.00994 5.72e-4,0.021321 0,0.03125 -0.01409,0.2443961 -0.124984,0.4999837 -0.3125,0.6875 L 8.7814772,10.6875 c -0.4055042,0.405504 -1.0632456,0.405504 -1.46875,0 -0.4055044,-0.405504 -0.4055044,-1.0632456 0,-1.46875 L 8.5314772,8 5,8 C 4.446,8 4,7.554 4,7 4,6.446 4.446,6 5,6 L 8.5314772,6 7.3127272,4.78125 C 6.9072228,4.3757456 6.9072228,3.7180044 7.3127272,3.3125 7.5154794,3.1097478 7.7668746,3 8.031477,3 z"
     id="path2999"
     inkscape:connector-curvature="0"
     sodipodi:nodetypes="sssssssscscccccsssscssscsss" />
  <path
     style="fill:#eedb58;fill-opacity:1;stroke:none"
     d="M 8.3362186,12 14,16 13,10 z"
     id="path3001"
     inkscape:connector-curvature="0"
     sodipodi:nodetypes="cccc" />
</svg>

<svg xmlns="http://www.w3.org/2000/svg" viewBox="0 0 16 16">
 <path d="m 8 0 c -4.418 0 -8 3.134 -8 7 c 0 3.866 3.582 7 8 7 4.418 0 8 -3.134 8 -7 c 0 -3.866 -3.582 -7 -8 -7 z m 0.031 3 c 0.265 0 0.547 0.11 0.75 0.313 l 2.906 2.906 c 0.016 0.016 0.016 0.045 0.031 0.063 0.099 0.113 0.17 0.237 0.219 0.375 0.035 0.1 0.063 0.211 0.063 0.313 0 0.011 0 0.02 0 0.031 0 0.011 0 0.021 0 0.031 0 0.01 0.001 0.021 0 0.031 0 0.01 0.001 0.021 0 0.031 -0.014 0.244 -0.125 0.5 -0.313 0.688 l -2.906 2.906 c -0.406 0.406 -1.063 0.406 -1.469 0 -0.406 -0.406 -0.406 -1.063 0 -1.469 l 1.219 -1.219 -3.531 0 c -0.554 0 -1 -0.446 -1 -1 0 -0.554 0.446 -1 1 -1 l 3.531 0 -1.219 -1.219 c -0.406 -0.406 -0.406 -1.063 0 -1.469 0.203 -0.203 0.454 -0.313 0.719 -0.313 z" style="fill:#eedb58;fill-opacity:1;stroke:none"/>
 <path d="m 8.336 12 5.664 4 -1 -6 z" style="fill:#eedb58;fill-opacity:1;stroke:none"/>
</svg>
